src/assets/icons/filter.svg

<svg width="16" height="16" viewBox="0 0 16 16" fill="none" xmlns="http://www.w3.org/2000/svg">
<path fill-rule="evenodd" clip-rule="evenodd" d="M0.5 2.44247C0.5 1.38179 1.35004 0.5 2.42355 0.5H13.5747C14.6488 0.5 15.4974 1.38246 15.4974 2.44247V3.14438C15.4974 3.82149 15.2401 4.47394 14.7783 4.9662L11.144 8.83063L11.136 8.83903C10.5782 9.41403 10.2634 10.1929 10.2634 11.0067V12.7217C10.2634 13.3517 9.92236 13.9377 9.36562 14.2418L7.29478 15.3702C6.57762 15.7597 5.74839 15.2204 5.74839 14.444V11.0157C5.74839 10.218 5.44483 9.45386 4.90653 8.8811C4.88838 8.86521 4.87092 8.84838 4.85423 8.83063L1.22055 4.96688C0.757395 4.47437 0.5 3.82157 0.5 3.14438V2.44247ZM5.90163 7.75522C5.91428 7.76651 5.92658 7.77827 5.93851 7.79049C6.77771 8.64963 7.24813 9.80886 7.24813 11.0157V13.6877L8.64679 12.9255C8.64674 12.9256 8.64684 12.9255 8.64679 12.9255C8.71476 12.8883 8.76368 12.8114 8.76368 12.7217V11.0067C8.76368 9.80954 9.22555 8.65675 10.0553 7.79913L13.6845 3.94009C13.6845 3.94011 13.6846 3.94008 13.6845 3.94009C13.8842 3.7272 13.9977 3.44213 13.9977 3.14438V2.44247C13.9977 2.1864 13.7964 1.99974 13.5747 1.99974H2.42355C2.20114 1.99974 1.99974 2.18707 1.99974 2.44247V3.14438C1.99974 3.44206 2.11307 3.72676 2.31305 3.93942C2.31305 3.93942 2.31306 3.93943 2.31305 3.93942L5.90163 7.75522Z" fill="white"/>
</svg>

<svg width="16" height="16" fill="none" xmlns="http://www.w3.org/2000/svg"><path fill-rule="evenodd" clip-rule="evenodd" d="M.5 2.442C.5 1.382 1.35.5 2.424.5h11.15c1.075 0 1.923.882 1.923 1.942v.702c0 .677-.257 1.33-.719 1.822l-3.634 3.865-.008.008a3.11 3.11 0 0 0-.873 2.168v1.715c0 .63-.34 1.216-.897 1.52L7.295 15.37c-.717.39-1.547-.15-1.547-.926v-3.428c0-.798-.303-1.562-.841-2.135l-.053-.05-3.633-3.864A2.66 2.66 0 0 1 .5 3.144zm5.402 5.313.037.035c.839.86 1.31 2.019 1.31 3.226v2.672l1.398-.763a.23.23 0 0 0 .117-.203v-1.715c0-1.197.462-2.35 1.291-3.208l3.63-3.859c.2-.213.313-.498.313-.796v-.702A.433.433 0 0 0 13.575 2H2.424A.434.434 0 0 0 2 2.442v.702c0 .298.113.583.313.795z" fill="#fff"/></svg>
